X: 5
T:A saia da Carolina
M:2/4
L:1/8
Q:200
C:Trad
R:Pasodoble
B:Os Segredos da Gaita. FOXO
K:C
CD EF | G3 A | F2E2 | G3A | FG EF |
D2C2- | C4- |1 C4 :|2 C3 G | {B}G{B}G FG |
EC- CG | {B}G2FG | E3 G | {B}GG FG | EC2 D |
E{B}E D{B}D | C3 G | {B}G{B}G F{B}F | E3 G | {B}G{B}G F{B}F |
E3G | {B}G{B}G FG | EC- CG | {B}G2 F{B}F | E4 ||

